X:1
T:Tell the Whole Wide World
T:John Robson Sweney
T:Tell the Whole Wide World
T:Public Domain
T:Public Domain
C:John Robson Sweney
Z:Public Domain
%%score ( 1 2 ) ( 3 4 )
L:1/8
M:4/4
K:Db
V:1 treble 
V:2 treble 
V:3 bass 
V:4 bass 
V:1
 [FA]>[GB] | [FA]2 [DF]2 [FA]2 [Fd]2 | [Gd]4 [Gc]2 [Ec]>[Fd] | [Ge]2 [Gc]2 [GB]2 [Gc]2 | %4
w: 1.~Tell the|whole wide world of|Je- sus, Bear the|news from shore to|
w: 2.~Send a-|broad the Gos- pel|her- alds, Let them|take the bless- èd|
w: 3.~Yes, we’ll|send the joy- ful|mes- sage, O- ver|mount- ain, o- ver|
w: 4.~While we|pray for o- ther|na- tions, Send them|help with will- ing|
 [FA]6 [FA]>[GB] | [FA]2 [DF]2 [Ad]2 [Ac]2 | [Ac]4 [GB]2 [Ge]>[Ge] | [Fd]2 [Ec]2 [GB]2 [Gc]2 | %8
w: shore; Tell- ing|sin- ners of the|Sav- ior, Let the|light spread more and|
w: light; In- to|ev- ery land of|dark- ness, Pierc- ing|through the shades of|
w: wave; Tell- ing|ev- ery- where of|Je- sus, And His|might- y power to|
w: hand, Let us|not for- get the|home fields, Je- sus|for our na- tive|
 [Fd]6 ||"^Refrain" A>A | (z2 F>F F2) [FA]2 | [Ad]2 [Ac]2 [GB]2 B>B | (z2 =G>G G2) [GB]2 | %13
w: more.|||||
w: night.|||||
w: save.|Tell the|* * * world,|* whole wide world, Bear|* * * the|
w: land!|||||
 [Be]2 [Bd]2 [Ac]2 A>A | [Af]2 [Ge]2 [Fd]2 [FA]2 | [Ac]4 [GB]2 [Ge]>[Ge] | %16
w: |||
w: |||
w: * from shore to shore;|whole wide world of|Je- sus, Praise His|
w: |||
 [Fd]2 [Ec]2 [GB]2 [Gc]2 | [Fd]6 |] %18
w: ||
w: ||
w: Name for- ev- er-|more!|
w: ||
V:2
 x2 | x8 | x8 | x8 | x8 | x8 | x8 | x8 | x6 || x2 | d6 x2 | x8 | e6 x2 | x6 A>A | x8 | x8 | x8 | %17
w: |||||||||||||||||
w: |||||||||||||||||
w: ||||||||||the||news|Tell the||||
 x6 |] %18
w: |
w: |
w: |
V:3
 [D,D]>[D,D] | [D,D]2 [D,A,]2 [D,D]2 [D,A,]2 | [E,A,]4 [E,A,]2 A,>A, | A,2 [A,E]2 [A,D]2 [A,E]2 | %4
 [D,D]6 [D,D]>[D,D] | [D,D]2 [D,A,]2 [F,D]2 [F,D]2 | [G,D]4 [G,D]2 [G,B,]>[G,B,] | %7
 A,2 A,2 [A,,A,]2 [A,,A,]2 | [D,A,]6 || z2 | z2 [D,A,]>[D,A,] [D,A,]2 [D,D]2 | %11
 [F,D]2 [F,D]2 [G,D]2 z2 | z2 [E,B,]>[E,B,] [E,B,]2 [E,E]2 | [=G,E]2 [G,E]2 [A,E]2 A,>A, | %14
 [D,D]2 [E,C]2 [F,D]2 [D,D]2 | [G,D]4 [G,D]2 [G,B,]>[G,B,] | A,2 A,2 [A,,A,]2 [A,,A,]2 | [D,A,]6 |] %18
V:4
 x2 | x8 | x6 A,>A, | A,2 x6 | x8 | x8 | x8 | A,2 A,2 x4 | x6 || x2 | x8 | x8 | x8 | x6 A,>A, | %14
 x8 | x8 | A,2 A,2 x4 | x6 |] %18

